X:1
T:Gaspar van Weerbeke 1445 - 1516
T:Tenebre facte sunt
%%score [ 1 2 3 4 ]
L:1/8
Q:1/4=480
M:2/2
K:C
V:1 treble nm="Cantus"
V:2 treble nm="Altus"
V:3 treble nm="Tenor"
V:4 treble nm="Bassus"
V:1
"^;""^U" x8 |[M:4/1] A24 A8 | A12 G2 F2"^-" x16- x8 | x16 G16 x16 | F24 A8 x8 | G8 F8 G16 | %6
w: |Te- ne-|bre * * *|fa-|cte *||
"^-" !fermata!x16- x16 |[M:4/1] A16 G16 | A8 G8 F8 D8 |"^-" !fermata!x16- x16 | z8 E8 E16 | %11
w: sunt,|O bo-|ne * Je *|su|dum te|
 E16 G8 G8 | F16 E8 D8 | E16 E8 G8 | A8 c8 B12 A2 B2 | !fermata!c16 z8 B8 | B8 B8 c16 | %17
w: cru- ci- fi-|xi- sent *|* iu *|de * * * *|i &|cir- ca ho-|
 B16 A8 A16 | ^G8 A16 z8 | F8 F16 F8 | E8 !fermata!E16 F24 | F8 E8 D8 E8 | %22
w: * ram no-|* nam|ex- cla- ma|* sti vo-|ce ma * *|
 G16 F8"^-"[Q:1/4=240] !fermata!x16 ||[Q:1/4=480] !fermata!c16 !fermata!c16 || %24
w: gna *|De- us,|
 !fermata!B16 !fermata!B16 || !fermata!c16 !fermata!c16 || z8 G8 G8 G8 | G16 F8 F16 | %28
w: De- us|me- us|ut quid de-|re- li- qui-|
 E8 !fermata!E16 x8 || z8 E8 E8 E8 | E16 D8 D16 | E8 D8 C8 C16 | z8 G8 G8 G8 | A12 G4 F8 E8 | %34
w: sti me|& in- cli-|na- * to|ca \- pi- te|e- mi- si-|sti * spi- *|
 F12 E4 x16 |"^-" !fermata!x16- x16 | B16 B16 | c16 c8 c8 | B16 A8 A8 | G16 A8 c8 | %40
w: ri *|tum.|Cum er-|go ac- ce-|pis- ses a-|ce- tum *|
 B8 d12 c4 B4 A4 |"^-" !fermata!x16- x16 || z8 G16 G8 | G24[Q:1/4=360] A8 | %44
w: di- xi- * * *|sti|con- su-|ma- tum|
"^-"[Q:1/4=120] !fermata!x16 x16 |] x16 |] %46
w: ||
V:2
"^;""^U" x8 |[M:4/1] E24 E8 | E8 C8 C16 x8 | G,24 G,8 x16 | A,24 D8 x8 | E8 F8 E16 | %6
w: |Te- ne-|bre * *|fa- cte||sunt, * *|
"^-" !fermata!x16- x16 |[M:4/1] F16 E16 | C8 G,8 A,8 B,8 |"^-" !fermata!x16- x16 | z8 C8 C16 | %11
w: |O bo-|ne * Je *|su|dum te|
 C16 C8 C8 | D16 G,8 F,8 | G,16 G12 E4 | F8 G8 G16 | !fermata!E16 z8 G8 | G8 G8 G16 | %17
w: cru- ci- fi-|xi- sent *|* iu *|* * de-|i &|cir- ca ho-|
 G16 E4 C4 D8 x8 | E16 C16 | z8 D8 D16 | D8 C8 !fermata!C16 x16 | A,8 D16 C8 | C8 A,8 C16 x8 || %23
w: ram no * *|* nam|ex- cla-|ma * sti|vo- * ce|ma * gna|
 D16"^-" !fermata!x16 || !fermata!E16 !fermata!E16 || !fermata!G16 !fermata!G16 || %26
w: |De- us,|De- us|
 !fermata!E16 !fermata!E16 | x32 x8 | x32 || x32 | x32 x8 | x32 x8 | x32 | x32 | x32 | x32 | x32 | %37
w: me- us|||||||||||
 G16 G16 | E24 C8 | z8 G,8 A,12 A,4 | B,8 E16 F8 | G8 G8 D16 ||"^-" !fermata!x16- x16 | z8 E16 E8 | %44
w: Cum er-|go *|ac- ce- pis-|ses a- ce-|tum di- xi-|sti|con- su-|
 E24 C8 |]"^-" !fermata!x16 |] %46
w: ma- tum||
V:3
"^;""^U" x8 |[M:4/1][K:treble-8] A24 A8 | A16 G24 | c8 B8 c8 d24 | A8 c8 d8 B16 | %5
w: |Te- ne-|bre fa-|* cte * *|sunt, * * *|
"^-" !fermata!x16- x16 |[M:4/1][K:treble-8] c16 c16 | A8 c16 B8 |"^-" !fermata!x16- x16 | %9
w: |O bo-|ne Je \-|su|
 z8 G8 G16 | G16 G8 G8 | A16 c8 B8 | c16 z8 e8 | d8 c8 d16 | !fermata!c16 z8 d8 | d8 d8 e16 | %16
w: dum te|cru- ci- fi-|xi- sent *|* iu-|de * *|i &|cir- ca ho-|
 d16 c8 A8 | B16 A16 x8 | z8 A8 A16 | A8 G8 !fermata!G16 | F24 A8 x16 | G8 F8 G16 | %22
w: ram no- *|* nam|ex- cla-|ma * sti|vo- ce|ma * gna|
 A16"^-" !fermata!x16 x8 || !fermata!G16 !fermata!c16 || !fermata!d16 !fermata!d16 || %25
w: |De- us,|De- us|
 !fermata!c16 !fermata!c16 || z8 c8 c8 c8 | c16 d8 d16 | e8 !fermata!e16 x8 || z8 A8 A8 A8 | %30
w: me- us|ut quid de-|re- li- qui-|sti me|& in- cli-|
 A16 B8 B16 | c8 B8 c8 c16 | z8 c8 c8 e8 | d12 e4 d8 e8 | d12 e4 x16 |"^-" !fermata!x16- x16 | %36
w: na- to ca-|pi * * te|e- mi- si-|sti * spi- *|ri- *|tum.|
 d16 d16 | c16 c8 c8 | d16 d8 d8 | e16 c8 c8 | d16"^-" !fermata!x16- | x16 x16 || z8 B16 B8 | %43
w: Cum er-|go ac- ce-|pis- ses a-|ce- tum di-|xi- sti||con- su-|
 B24 A8 |"^-" !fermata!x16 x16 |] x16 |] %46
w: ma- tum|||
V:4
"^;""^E""^U" x8 |[M:4/1][K:bass] A,,24 A,,8 | A,,16"^-" x16- x8 | x16 E,8 E,8 x16 | D,24 F,8 x8 | %5
w: |Te- ne-|bre fa-|* cte||
 E,8 D,8 E,16 |"^-" !fermata!x16- x16 |[M:4/1] F,16 C,16 | F,8 E,8 F,8 G,8 | %9
w: |sunt,|O bo-|ne * Je *|
"^-" !fermata!x16- x16 | z8 C,8 C,16 | C,16 E,8 E,8 | D,16 C,8 D,8 |"^-" x16- x16 | z8 C,8 G,16 | %15
w: su|dum te|cru- ci- fi-|xi- sent *||iu- de-|
 !fermata!C,16 z8 G,8 | G,8 G,8 C,16 | G,16 A,8 F,8 x8 | E,16 A,,16 | z8 D,8 D,16 | %20
w: i &|cir- ca ho-|ram no- *|* nam|ex- cla-|
 F,8 C,8 !fermata!C,16 x16 | D,24 F,8 | C,8 D,8 C,8 E,8 x8 || D,16"^-" !fermata!x16 || %24
w: ma * sti|vo- ce|ma * * *||
 !fermata!C,16 !fermata!C,16 || !fermata!G,16 !fermata!G,16 || !fermata!C,16 !fermata!C,16 | %27
w: De- us,|De- us|me- us|
 x32 x8 | x32 || x32 | x32 x8 | x32 x8 | x32 | x32 | x32 | x32 | x32 | G,16 G,16 | C,16 C,8 C,8 | %39
w: ||||||||||Cum er-|go ac- ce-|
 G,16 F,8 F,8 | E,16 A,16 | G,16 G,12 F,4 ||"^-" !fermata!x16- x16 | z8 E,16 E,8 | E,24 A,,8 |] %45
w: pis- ses a-|ce- *|tum di- xi-|sti|con- su-|ma- tum|
"^-" !fermata!x16 |] %46
w: |

